packages/ui-icons/svg/Line/remove-from-collection.svg

<svg viewBox="0 0 1920 1920" version="1.1" xmlns="http://www.w3.org/2000/svg">
    <path d="M0,1920 L1242.35294,1920 L1242.35294,677.647059 L0,677.647059 L0,1920 Z M1129.41176,790.588235 L1129.41176,1807.05882 L112.941176,1807.05882 L112.941176,790.588235 L1129.41176,790.588235 Z M1581.17647,338.823529 L1581.17647,1581.17647 L1355.29412,1581.17647 L1355.29412,1468.23529 L1468.23529,1468.23529 L1468.23529,451.764706 L451.764706,451.764706 L451.764706,564.705882 L338.823529,564.705882 L338.823529,338.823529 L1581.17647,338.823529 Z M1920.03388,-0.0112941176 L1920.03388,1242.34165 L1694.15153,1242.34165 L1694.15153,1129.40047 L1807.09271,1129.40047 L1807.09271,112.929882 L790.622118,112.929882 L790.622118,225.871059 L677.680941,225.871059 L677.680941,-0.0112941176 L1920.03388,-0.0112941176 Z M338.823529,1355.29412 L903.529412,1355.29412 L903.529412,1242.35294 L338.823529,1242.35294 L338.823529,1355.29412 Z" stroke="none" stroke-width="1" fill-rule="evenodd"/>
</svg>

<svg viewBox="0 0 1920 1920" xmlns="http://www.w3.org/2000/svg">
    <path d="M0 1920h1242.353V677.647H0V1920ZM1129.412 790.588v1016.47H112.942V790.589h1016.47Zm451.764-451.764v1242.352h-225.882v-112.94h112.941V451.764H451.765v112.94H338.824V338.825h1242.352ZM1920.034-.011v1242.353h-225.882V1129.4h112.94V112.93H790.623v112.94H677.681V-.01h1242.353ZM338.824 1355.294h564.705v-112.941H338.824v112.941Z" fill-rule="evenodd"/>
</svg>
